!!!!SEGMENT: pl-kk--kk-i-482--007_zieleniewicz-mathias--msza-2ga-gloria.krn
!!!cenid: 17xx:1915
!!!COM: Zieleniewicz, Mathias
!!!COM-rismid: pe50045913
!!!CDT: <1724->1763
!!!CNT: Polish
!!!OPR: Msza 2ga
!!!OTL: Gloria
!!!OMV: 002
!!!PDT: 1724
!!!AGN: Sacred; Mass
!!!SMS-siglum: PL-Kk
!!!SMS-shelfmark: Kk.I.482
!!!SMS-shelfwork: 002-002 M
!!!SMS-variant: Soprano. PL-Kk Kk.I.482:0015-0016; Alto. PL-Kk Kk.I.482:0019-0020; Tenore. PL-Kk Kk.I.482:0025-0026; Basso. PL-Kk Kk.I.482:0029-0030
!!!SMS-altvar: Soprano PL-Kk Kk.I.482:0035-0036; Alto. PL-Kk Kk.I.482:0039-0040; Tenore. PL-Kk Kk.I.482:0044-0045
!!!NIFC-rismid: 1001140324
!!!URL-scan: http://repozytorium.nifc.pl/skany/pl-kk-nut--i-482
!!!ONB-nifc: UWAGA: zakres skanów 0015-0031. Proszę uzupełnić pola !!!SMS dot. partytury i głosów. UWAGA: w zbiorze Msza Isza i Msza 2ga. Części Mszy 2giej: 6. Kyrie, 7. Gloria, 8. Sanctus, 9. Benedictus, 10. Agnus
!!!key:
**kern	**text	**kern	**text	**kern	**text	**kern	**text
*part4	*part4	*part3	*part3	*part2	*part2	*part1	*part1
*staff4	*staff4	*staff3	*staff3	*staff2	*staff2	*staff1	*staff1
*Ibass	*	*Itenor	*	*Ialto	*	*Isoprn	*
*I"Basso.	*	*I"Tenore.	*	*I"Alto.	*	*I"Soprano.	*
*I'B	*	*I'T	*	*I'A	*	*I'S	*
*clefF4	*	*clefC4	*	*clefC3	*	*clefC1	*
*k[b-]	*	*k[b-]	*	*k[b-]	*	*k[b-]	*
*d:	*	*d:	*	*d:	*	*d:	*
*M2/2	*	*M2/2	*	*M2/2	*	*M2/2	*
*met(c|)	*	*met(c|)	*	*met(c|)	*	*met(c|)	*
=1	=1	=1	=1	=1	=1	=1	=1
*all\right	*	*all\right	*	*all\right	*	*all\right	*
*^	*	*	*	*	*	*	*
!LO:CL:ed	!	!	!	!	!	!	!	!
*clefC1	*	*	*	*	*	*	*	*
*cue	*	*	*	*	*	*	*2\right	*
!LO:TX:a:t=Sopra	!LO:TX:b:t=i.	!	!	!	!	!	!	!
!LO:TX:t=P:problem:brak klucza dla sopranu	!	!	!LO:TX:a:t=3.	!	!LO:TX:a:t=4.	!	!	!
2dd/	1rC	Et	0r	.	00r	.	2dd\	Et
2d/	.	in	.	.	.	.	2d/	in
*Xcue	*	*	*	*	*	*	*	*
*v	*v	*	*	*	*	*	*	*
=2	=2	=2	=2	=2	=2	=2	=2
*clefF4	*	*	*	*	*	*	*
*2\right	*	*	*	*	*	*	*
!LO:TX:a:t=P:problem:klucz przypominający	!	!	!	!	!	!	!
!LO:TX:a:t=Bas	!	!	!	!	!	!	!
2A\	Et	.	.	.	.	2e/	ter-
2AA/	in	.	.	.	.	[2a\	.
=3	=3	=3	=3	=3	=3	=3	=3
!LO:SIC:v:s=2BBn	!	!	!	!	!	!	!
!LO:SIC:v:l:s=ter	!	!	!	!	!	!	!
2BB-X/	ler-	1r	.	.	.	2a\]	.
2C#X/	-ra	.	.	.	.	2g\	-ra
=4	=4	=4	=4	=4	=4	=4	=4
*	*	*2\right	*	*	*	*	*
2D\	pax	2d\	Et	.	.	4f/	pax
.	.	.	.	.	.	4a\	ho-
2D\	ho-	2D/	in	.	.	[2dd\	-mi-
=5	=5	=5	=5	=5	=5	=5	=5
*	*	*	*	*2\right	*	*	*
4AA/	-mi-	2E/	ter-	2a\	Et	4dd\]	.
4AA/	-ni-	.	.	.	.	4dd\	-ni-
2AA/	-bus,	[>2A/	.	2A/	in	2cc#X\	-bus
=6	=6	=6	=6	=6	=6	=6	=6
!LO:TX:a:t=1.	!	!	!	!	!	!	!
1r	.	2A/]	.	2Bn/	ter-	4dd\	bo-
.	.	.	.	.	.	4dd\	-ne
.	.	2G/	-ra	2c#X/	-ra	4ee\	vo-
.	.	.	.	.	.	4ee\	-lun-
=7	=7	=7	=7	=7	=7	=7	=7
2r	.	2F/	pax	2d\	pax	2a\	-ta-
4D\	bo-	4A\	ho-	2f\	ho-	2dd\	-tis,
4D\	-ne	4B-X\	.	.	.	.	.
!	!	!	!	!	!	!LO:LB:g=original	!
=8	=8	=8	=8	=8	=8	=8	=8
2C/	vo-	2c\	-mi-	4e\	-mi-	1g	vo-
.	.	.	.	4e\	-ni-	.	.
2C/	-lun-	4c\	-ni-	2e\	-bus	.	.
.	.	4c\	-bus	.	.	.	.
!LO:LB:g=original	!	!	!	!	!	!	!
=9	=9	=9	=9	=9	=9	=9	=9
1F	-ta-	4c\	bo-	4f\	bo-	1a	-lun-
.	.	4c\	-ne	4f\	-ne	.	.
.	.	4c\	vo-	4f\	vo-	.	.
.	.	4c\	-lun-	4f\	-lun-	.	.
!	!	!LO:LB:g=original	!	!	!	!	!
=10	=10	=10	=10	=10	=10	=10	=10
1C	.	1c	-ta-	2f\	-ta-	1g	-ta-
.	.	.	.	2e\	.	.	.
!	!	!	!	!LO:LB:g=original	!	!	!
=11	=11	=11	=11	=11	=11	=11	=11
2F\	-tis.	2c\	-tis,	4f\	-tis	2a\	-tis,
.	.	.	.	4c\	Lau-	.	.
2r	.	2r	.	[2f\	-da-	2a\	Lau-
=12	=12	=12	=12	=12	=12	=12	=12
!	!	!LO:TX:a:t=1.	!	!	!	!	!
1r	.	1r	.	2f\]	.	2b-X\	-da-
.	.	.	.	2e\	-mus	2cc\	-mus
=13	=13	=13	=13	=13	=13	=13	=13
2r	.	4F/	be-	2f\	te,	2a\	te,
.	.	4F/	-ne-	.	.	.	.
4E\	be-	[2c\	-di-	4g\	be-	4g\	be-
4E\	-ne-	.	.	4g\	-ne-	4cc\	-ne-
=14	=14	=14	=14	=14	=14	=14	=14
2F\	-di-	2c\]	.	2f\	-di-	2a\	-di-
4G\	-ci-	4Bn\	-ci-	4d\	-ci-	4g\	-ci-
4G\	-mus	4B\	-mus	4d\	-mus	4g\	-mus
=15	=15	=15	=15	=15	=15	=15	=15
2E\	te,	2c\	te,	2e\	te,	2g\	te,
4C/	a-	4e\	a-	4g\	a-	[2cc\	a-
4C/	-do-	4e\	-do-	4g\	-do-	.	.
=16	=16	=16	=16	=16	=16	=16	=16
2G\	-ra-	2d\	-ra-	2g\	-ra-	4cc\]	.
.	.	.	.	.	.	4cc\	-do-
2G\	-mus	2d\	-mus	2g\	-mus	4bn\	-ra-
.	.	.	.	.	.	4b\	-mus
=17	=17	=17	=17	=17	=17	=17	=17
4D\	te,	4d\	te,	4g\	te,	4a\	te,
4D\	glo-	4d\	glo-	4f\	glo-	4a\	glo-
!	!	!	!	!	!	!LO:LB:g=original	!
4D\	-ri-	4d\	-ri-	4f\	-ri-	4a\	-ri-
4D\	-fi-	4d\	-fi-	4f\	-fi-	4a\	-fi-
!LO:LB:g=original	!	!	!	!LO:LB:g=original	!	!	!
=18	=18	=18	=18	=18	=18	=18	=18
2A\	-ca-	2d\	-ca-	2e\	-ca-	2a\	-ca-
2AA/	-mus	2c\	-mus	2e\	-mus	2a\	-mus
!	!	!LO:LB:g=original	!	!	!	!	!
=19	=19	=19	=19	=19	=19	=19	=19
!	!	!	!	!LO:TX:a:t=2	!	!LO:TX:a:t=2	!
0E	te.	0Bn	te,	0e	te,	0g#X	te,
=20	=20	=20	=20	=20	=20	=20	=20
.	.	.	.	.	.	.	.
=21||	=21||	=21||	=21||	=21||	=21||	=21||	=21||
*M3/2	*	*M3/2	*	*M3/2	*	*M3/2	*
2.c\	Gra-	2.e\	Gra-	2.g\	Gra-	2.cc\	Gra-
4G\	-ti-	4e\	-ti-	4g\	-ti-	4cc\	-ti-
2E\	-as	2e\	-as	2g\	-as	2cc\	-as
=22	=22	=22	=22	=22	=22	=22	=22
2.C/	a-	2.e\	a-	2.g\	a-	2.cc\	a-
4D\	.	4d\	.	4f\	.	4bn\	.
4E\	-gi-	4c\	-gi-	4e\	-gi-	4cc\	-gi-
4F\	-mus	4f\	-mus	4a\	-mus	4dd\	-mus
=23	=23	=23	=23	=23	=23	=23	=23
1G	ti-	1d	ti-	1g	ti-	1bn	ti-
2G\	-bi	2d\	-bi	2g\	-bi,	2b\	-bi
=24	=24	=24	=24	=24	=24	=24	=24
!	!	!	!	!LO:TX:a:t=4.	!	!	!
!	!	!	!	!LO:N:vis=00	!	!	!
2r	.	2r	.	00.r	.	2r	.
2G\	pro-	2d\	pro-	.	.	2bn\	pro-
2G\	-pter	2d\	-pter	.	.	2b\	-pter
=25	=25	=25	=25	=25	=25	=25	=25
1G	ma-	1e	ma-	.	.	1cc	ma-
2G\	-gnam	2e\	-gnam	.	.	2cc\	-gnam
!LO:LB:g=original	!	!	!	!	!	!LO:LB:g=original	!
=26	=26	=26	=26	=26	=26	=26	=26
1.G	glo-	2.d\	glo-	.	.	2.bn\	glo-
.	.	4d\	-ri-	.	.	4b\	-ri-
.	.	2d\	-am	.	.	2b\	-am
!	!	!LO:LB:g=original	!	!	!	!	!
=27	=27	=27	=27	=27	=27	=27	=27
1G	-ri-	2.e\	glo-	.	.	2.cc\	glo-
.	.	4e\	-ri-	.	.	4cc\	-ri-
2G\	-am	2e\	-am	.	.	2cc\	-am
!	!	!	!	!LO:PB:g=original	!	!	!
=28	=28	=28	=28	=28	=28	=28	=28
!	!	!	!	!	!	!LO:SIC:v:s=1bn	!
2G\	tu-	1d	tu-	2r	.	1b-	tu-
2G\	-am	.	.	2G/	pro-	.	.
!	!	!	!	!	!	!LO:SIC:v:s=2bn	!
2r	.	2d\	-am	2G/	-pter	2b-\	-am
=29	=29	=29	=29	=29	=29	=29	=29
!	!	!	!	!	!	!LO:TX:a:t=1.	!
2r	.	2r	.	[1.c	ma-	1.r	.
2C/	pro-	2e\	pro-	.	.	.	.
2C/	-pter	2e\	-pter	.	.	.	.
=30	=30	=30	=30	=30	=30	=30	=30
1.F	ma-	1.A	ma-	2c\]	.	2r	.
.	.	.	.	2B-/	.	2c/	pro-
.	.	.	.	2A/	-gnam,	2c/	-pter
=31	=31	=31	=31	=31	=31	=31	=31
2F\	.	2A\	.	[1.d	ma-	1.f	ma-
2E\	.	2G/	.	.	.	.	.
2D\	-gnam,	2F/	-gnam,	.	.	.	.
=32	=32	=32	=32	=32	=32	=32	=32
1.G	ma-	[1.Bn	ma-	2d\]	.	1.d	-gnam
.	.	.	.	2c\	.	.	.
!	!	!	!	!LO:SIC:v:s=2Bn	!	!	!
.	.	.	.	2B-/	-gnam	.	.
=33	=33	=33	=33	=33	=33	=33	=33
2G\	.	2BnX\]	.	1.e	glo-	1.g	glo-
2F\	.	2A\	.	.	.	.	.
!LO:TX:b:t=Volti Subitto.	!	!	!	!	!	!	!
2E\	-gnam	2G/	-gnam	.	.	.	.
!LO:PB:g=original	!	!	!	!	!	!	!
=34	=34	=34	=34	=34	=34	=34	=34
!LO:TX:t=P:problem:zbędne 4 takty w T	!	!LO:TX:t=P:problem:zbędne 4 takty (34-37)	!	!LO:TX:t=P:problem:zbędne 4 takty w T	!	!LO:TX:t=P:problem:zbędne 4 takty w T	!
1.ryy	.	[1.c	ma-	1.ryy	.	1.ryy	.
!	!	!LO:LB:g=original	!	!	!	!	!
=35	=35	=35	=35	=35	=35	=35	=35
!	!	!LO:TX:t=P:problem:brak zakończenia ligatury	!	!	!	!	!
1.ryy	.	2c\]	.	1.ryy	.	1.ryy	.
.	.	2B-X\	.	.	.	.	.
.	.	2A\	-gnam	.	.	.	.
=36	=36	=36	=36	=36	=36	=36	=36
1.ryy	.	1.d	ma-	1.ryy	.	1.ryy	.
=37	=37	=37	=37	=37	=37	=37	=37
1.ryy	.	2d\	.	1.ryy	.	1.ryy	.
.	.	2c\	.	.	.	.	.
!	!	!LO:SIC:v:s=2Bn	!	!	!	!	!
.	.	2B-\	-gnam	.	.	.	.
=38	=38	=38	=38	=38	=38	=38	=38
[1.A	glo-	[1.c	glo-	2e\	.	1.e	.
.	.	.	.	2d\	-ri-	.	.
!	!	!	!	!	!	!LO:TX:b:t=Volti Subitto.	!
.	.	.	.	2c\	-am	.	.
!	!	!	!	!	!	!LO:PB:g=original	!
=39	=39	=39	=39	=39	=39	=39	=39
2A\]	.	2c\]	.	[1.f	glo-	1a	.
2G\	-ri-	2Bn\	ri-	.	.	.	.
2F\	-am	2A\	-am	.	.	2a\	-ri-
!	!	!	!	!LO:LB:g=original	!	!	!
=40	=40	=40	=40	=40	=40	=40	=40
2G\	glo-	2B-\	glo-	2f\]	.	2d/	-am
2A\	-ri-	2c\	-ri-	2e\	-ri-	2r	.
2Bn\	-am	2d\	-am	2d\	-am	2r	.
=41	=41	=41	=41	=41	=41	=41	=41
!	!	!	!	!	!	!LO:TX:a:t=1.	!
2c\	tu-	1c	tu-	2e\	tu-	1.r	.
2F\	.	.	.	1d	.	.	.
2G\	.	2Bn\	.	.	.	.	.
=42	=42	=42	=42	=42	=42	=42	=42
1.C	-am,	1.c	-am.	1.e	-am,	2.cc\	Do-
.	.	.	.	.	.	4cc\	-mi-
.	.	.	.	.	.	2cc\	-ne
!	!	!LO:PB:g=original	!	!	!	!	!
=43	=43	=43	=43	=43	=43	=43	=43
!LO:TX:a:t=4.	!	!LO:TX:a:t=5.	!	!	!	!	!
!LO:N:vis=00	!	!LO:N:vis=00	!	!	!	!	!
00.r	.	00.r	.	2.g\	Do-	4bn\	De-
.	.	.	.	.	.	4a\	.
.	.	.	.	.	.	4g\	-us
.	.	.	.	4g\	-mi-	4a\	.
.	.	.	.	2g\	-ne	4b\	Rex
.	.	.	.	.	.	4cc#X\	ce-
=44	=44	=44	=44	=44	=44	=44	=44
.	.	.	.	4f\	De-	2dd\	-les-
.	.	.	.	4e\	.	.	.
.	.	.	.	4d\	-us	2dd\	-tis
.	.	.	.	4e\	.	.	.
.	.	.	.	4f\	Rex	4dd\	De-
.	.	.	.	4g\	ce-	4dd\	-us
=45	=45	=45	=45	=45	=45	=45	=45
.	.	.	.	2a\	-le-	2cc#X\	Pa-
.	.	.	.	2a\	-stis	2cc#\	-ter
.	.	.	.	4a\	De-	2cc#\	om-
.	.	.	.	4g\	-us	.	.
!	!	!	!	!	!	!LO:LB:g=original	!
=46	=46	=46	=46	=46	=46	=46	=46
.	.	.	.	2f\	Pa-	[1.dd	-ni-
.	.	.	.	2g\	-ter	.	.
.	.	.	.	2f\	om-	.	.
!	!	!	!	!LO:LB:g=original	!	!	!
=47	=47	=47	=47	=47	=47	=47	=47
2.A\	Do-	1.r	.	1e	-ni-	1dd]	.
4A\	-mi-	.	.	.	.	.	.
2A\	-ne	.	.	2e\	-po-	2cc#X\	-po-
=48	=48	=48	=48	=48	=48	=48	=48
4F\	Fi-	2.d\	Do-	1f	-tens	1.dd	-tens,
4E\	-li	.	.	.	.	.	.
4D\	u-	.	.	.	.	.	.
4E\	.	4d\	-mi-	.	.	.	.
4F\	.	2d\	-ne	2r	.	.	.
4G\	-ni-	.	.	.	.	.	.
!LO:LB:g=original	!	!	!	!	!	!	!
=49	=49	=49	=49	=49	=49	=49	=49
!	!	!	!	!	!	!LO:TX:a:t=1.	!
2.A\	-ge-	4c#X\	Fi-	1.e	Je-	1.r	.
.	.	4Bn\	.	.	.	.	.
.	.	4A\	-li	.	.	.	.
4A\	-ni-	4B\	.	.	.	.	.
2A\	-te	4c#\	u-	.	.	.	.
.	.	4A\	-ni-	.	.	.	.
=50	=50	=50	=50	=50	=50	=50	=50
4F\	Je-	2.d\	-ge-	1.f	-su	1.a	Je-
4E\	.	.	.	.	.	.	.
4D\	.	.	.	.	.	.	.
4E\	.	4d\	-ni-	.	.	.	.
4F\	.	2d\	-te	.	.	.	.
4G 4D\	-su	.	.	.	.	.	.
=51	=51	=51	=51	=51	=51	=51	=51
1G	chri-	4B-X\	Je-	1.d	Je-	1.b-	-su
.	.	4A\	.	.	.	.	.
.	.	4G\	.	.	.	.	.
!	!	!LO:TX:t=P:problem:wartość pominięta	!	!	!	!	!
.	.	4A\yy	.	.	.	.	.
2G\	-ste	4B-\	.	.	.	.	.
.	.	4G\	.	.	.	.	.
=52	=52	=52	=52	=52	=52	=52	=52
4E\	Je-	1.c	.	1.e	-su	1.g	Je-
4D\	.	.	.	.	.	.	.
4C\	.	.	.	.	.	.	.
4D\	.	.	.	.	.	.	.
4E\	.	.	.	.	.	.	.
4C\	-su,	.	.	.	.	.	.
=53	=53	=53	=53	=53	=53	=53	=53
4F\	Je-	1.c	-su	1.f	Je-	1.a	-su
4E\	.	.	.	.	.	.	.
4F\	.	.	.	.	.	.	.
4G\	.	.	.	.	.	.	.
4A\	.	.	.	.	.	.	.
4F\	-su	.	.	.	.	.	.
!	!	!LO:LB:g=original	!	!	!	!	!
=54	=54	=54	=54	=54	=54	=54	=54
4B-\	Je-	2.d\	Je-	1f	.	2.b-\	Je-
4c 4A\	.	.	.	.	.	.	.
!LO:LB:g=original	!	!	!	!	!	!	!
4B-X\	.	.	.	.	.	.	.
4A\	.	4A\	.	.	.	4cc\	.
4G\	.	4B-X\	.	4e\	-su	4b-\	.
4F\	.	4c\	-su	4f\	.	4a\	.
=55	=55	=55	=55	=55	=55	=55	=55
1c	.	2c\	Je-	1e	Je-	1g	.
.	.	1c	-su	.	.	.	.
2A\	-su	.	.	2f\	-su	2a\	-su
=56	=56	=56	=56	=56	=56	=56	=56
2B-X\	Chri-	2d\	Chri-	1f	Chri-	1.g	Chri-
2c\	.	1c	.	.	.	.	.
2C/	.	.	.	2e\	.	.	.
!	!	!	!	!LO:LB:g=original	!	!LO:LB:g=original	!
=57	=57	=57	=57	=57	=57	=57	=57
1.F	-ste,	1c	-ste.	1.f	-ste.	1.a	-ste,
.	.	2r	.	.	.	.	.
=58	=58	=58	=58	=58	=58	=58	=58
!LO:TX:a:t=1.	!	!	!	!LO:TX:a:t=9.	!	!LO:TX:a:t=8.	!
!	!	!	!	!LO:N:vis=00	!	!LO:N:vis=00	!
1.r	.	2.F/	Do-	00.r	.	00.r	.
.	.	4F/	-mi-	.	.	.	.
!	!	!LO:TX:a:t=P:problem:nuta poprawiana	!	!	!	!	!
.	.	2G/	-ne	.	.	.	.
=59	=59	=59	=59	=59	=59	=59	=59
2.C/	Do-	1G	De-	.	.	.	.
4C/	-mi-	.	.	.	.	.	.
2C/	-ne	2A\	-us	.	.	.	.
=60	=60	=60	=60	=60	=60	=60	=60
1D	De-	1B-X	A-	.	.	.	.
2E\	-us	2B-\	-gnus	.	.	.	.
=61	=61	=61	=61	=61	=61	=61	=61
1F	A-	1A	De-	.	.	.	.
2F\	-gnus	2A\	-i	.	.	.	.
!LO:LB:g=original	!	!LO:LB:g=original	!	!	!	!	!
=62	=62	=62	=62	=62	=62	=62	=62
!	!	!	!	!LO:N:vis=00	!	!LO:N:vis=00	!
1E	De-	2G/	Fi-	00.r	.	00.r	.
.	.	2c\	-li-	.	.	.	.
2E\	-i	2c\	-us	.	.	.	.
=63	=63	=63	=63	=63	=63	=63	=63
2D\	Fi-	2F/	Pa-	.	.	.	.
2G\	-li-	1B-X	.	.	.	.	.
2G\	-us	.	.	.	.	.	.
=64	=64	=64	=64	=64	=64	=64	=64
1C	Pa-	1B-	.	.	.	.	.
2F\	.	[2A\	.	.	.	.	.
=65	=65	=65	=65	=65	=65	=65	=65
1.BB-X	.	2A\]	-tris,	.	.	.	.
.	.	4B-X\	Fi-	.	.	.	.
.	.	4A\	.	.	.	.	.
.	.	4G/	-li-	.	.	.	.
.	.	4F/	-us	.	.	.	.
=66	=66	=66	=66	=66	=66	=66	=66
1.C	-tris.	1.E	Pa-	1.r	.	4c/	Fi-
.	.	.	.	.	.	4d/	.
.	.	.	.	.	.	4e/	.
.	.	.	.	.	.	4f/	.
.	.	.	.	.	.	4g\	-li-
.	.	.	.	.	.	4a\	-us
=67	=67	=67	=67	=67	=67	=67	=67
2.C/	Fi-	1.E	-tris,	4b-X\	Fi-	1.b-X	Pa-
.	.	.	.	4a\	.	.	.
.	.	.	.	4g\	.	.	.
4C/	-li-	.	.	4f\	.	.	.
2C/	-us	.	.	4e\	li-	.	.
.	.	.	.	4d\	-us	.	.
=68	=68	=68	=68	=68	=68	=68	=68
4F\	Pa-	2.f\	Fi-	1c	Pa-	1.a	.
4E\	.	.	.	.	.	.	.
4F\	.	.	.	.	.	.	.
4G\	.	4f\	-li-	.	.	.	.
4A\	.	2c\	-us	2f\	.	.	.
4F\	-tris	.	.	.	.	.	.
=69	=69	=69	=69	=69	=69	=69	=69
2B-\	Pa-	2d\	Pa-	1f	.	1.g	.
2c\	.	1c	.	.	.	.	.
2C/	.	.	.	2e\	.	.	.
!	!	!LO:LB:g=original	!	!	!	!	!
=70	=70	=70	=70	=70	=70	=70	=70
!LO:N:vis=0	!	!LO:TX:a:t=2.	!	!	!	!	!
0.F	-tris.	0.c	-tris.	0.f	-tris,	0.a	-tris.
=71	=71	=71	=71	=71	=71	=71	=71
.	.	.	.	.	.	.	.
!LO:LB:g=original	!	!	!	!	!	!	!
=72||	=72||	=72||	=72||	=72||	=72||	=72||	=72||
*M2/2	*	*M2/2	*	*M2/2	*	*M2/2	*
*met(c|)	*	*met(c|)	*	*met(c|)	*	*met(c|)	*
!LO:TX:a:t=7	!	!LO:TX:a:t=6	!	!LO:TX:a:t=1.	!	!	!
00r	.	00r	.	1r	.	2r	.
.	.	.	.	.	.	2a\	Qui
=73	=73	=73	=73	=73	=73	=73	=73
.	.	.	.	2r	.	1b-	tol-
.	.	.	.	2d\	Qui	.	.
=74	=74	=74	=74	=74	=74	=74	=74
.	.	.	.	1f	tol-	4a\	-lis
.	.	.	.	.	.	4a\	pec-
.	.	.	.	.	.	[2dd\	-ca-
!	!	!	!	!LO:LB:g=original	!	!LO:LB:g=original	!
=75	=75	=75	=75	=75	=75	=75	=75
!	!	!	!	!	!	!LO:TX:a:t=P:problem:brak zakończenia ligatury	!
.	.	.	.	4e\	-lis	2dd\]	.
.	.	.	.	4e\	pec-	.	.
.	.	.	.	[2a\	-ca-	2cc\	-ta
=76	=76	=76	=76	=76	=76	=76	=76
0r	.	0r	.	2a\]	.	1b-X	mun-
.	.	.	.	2g\	-ta	.	.
=77	=77	=77	=77	=77	=77	=77	=77
.	.	.	.	2g\	mun-	2a\	-di
.	.	.	.	2f\	.	[2dd\	mun-
=78	=78	=78	=78	=78	=78	=78	=78
1r	.	2r	.	1e	.	2dd\]	.
.	.	2A\	Qui	.	.	2cc#X\	.
=79	=79	=79	=79	=79	=79	=79	=79
2r	.	1B-X	tol-	1d	-di	1dd	-di,
2D\	Qui	.	.	.	.	.	.
=80	=80	=80	=80	=80	=80	=80	=80
1F	tol-	4A\	-lis	2.a\	mi-	2.d/	mi-
.	.	4A\	pec-	.	.	.	.
.	.	[2d\	-ca-	.	.	.	.
.	.	.	.	4a\	-se-	4d/	-se-
=81	=81	=81	=81	=81	=81	=81	=81
4E\	-lis	2d\]	.	2g\	-re-	2e/	-re-
4E\	pec-	.	.	.	.	.	.
[2A\	-ca-	2c\	-ta	2e\	-re	2e/	-re
=82	=82	=82	=82	=82	=82	=82	=82
2A\]	.	1B-X	mun-	2d\	no-	2f/	no-
[2G\	.	.	.	4e\	.	2g/	.
.	.	.	.	4d\	.	.	.
=83	=83	=83	=83	=83	=83	=83	=83
2G\]	.	2A\	-di,	2c#X\	.	1a	.
2F\	-ta	[2d\	mun-	2d\	-bis,	.	.
!	!	!	!	!LO:LB:g=original	!	!	!
=84	=84	=84	=84	=84	=84	=84	=84
1E	mun-	2d\]	.	[y1g	mi-	1e	-bis,
.	.	2c#X\	.	.	.	.	.
!	!	!	!	!	!	!LO:LB:g=original	!
=85	=85	=85	=85	=85	=85	=85	=85
!	!	!	!	!LO:N:xstem:cue:vis=4	!	!	!
1D	-di	2d\	-di,	2g\]	-se-	[y1a	mi-
.	.	[2d\	mi-	2f#X\	-se-	.	.
!	!	!LO:LB:g=original	!	!	!	!	!
=86	=86	=86	=86	=86	=86	=86	=86
!	!	!	!	!	!	!LO:N:xstem:cue:vis=4	!
1G	mi-	2d\]	.	[y1b-X	-re-	2a\]	.
.	.	2e\	-se-	.	.	2g\	-se-
=87	=87	=87	=87	=87	=87	=87	=87
!	!	!	!	!LO:N:xstem:cue:vis=4	!	!	!
1A	-se-	[y1f	-re-	2b-\]	.	[1cc	-re-
.	.	.	.	2a\	-re	.	.
!LO:LB:g=original	!	!	!	!	!	!	!
=88	=88	=88	=88	=88	=88	=88	=88
!	!	!LO:N:xstem:cue:vis=4	!	!	!	!	!
1B-X	-re-	2f\]	.	2d\	no-	2cc\]	.
.	.	2d\	-re	[2g\	.	[2b-X\	-re
=89	=89	=89	=89	=89	=89	=89	=89
2c\	.	2e\	no-	2g\]	.	2b-\]	.
2F\	-re	4f\	.	[2f\	.	2a\	.
.	.	4c\	.	.	.	.	.
=90	=90	=90	=90	=90	=90	=90	=90
1C	no-	2c\	-bis	2f\]	.	1g	no-
.	.	2c\	qui	2e\	.	.	.
=91	=91	=91	=91	=91	=91	=91	=91
2F\	-bis,	2c\	tol-	2f\	-bis,	2a\	-bis,
2D\	qui	2d\	.	2f#X\	qui	2a\	qui
=92	=92	=92	=92	=92	=92	=92	=92
1G	tol-	1d	.	1g	tol-	1b-X	tol-
=93	=93	=93	=93	=93	=93	=93	=93
2G\	-lis	2G/	-lis	4e\	-lis	2b-\	-lis
.	.	.	.	4e\	pec-	.	.
2F\	pec-	2c\	pec-	4f\	-ca-	2a\	pec-
.	.	.	.	4f\	-ta	.	.
!	!	!	!	!LO:LB:g=original	!	!	!
=94	=94	=94	=94	=94	=94	=94	=94
2B-X\	-ca-	2d\	-ca-	[y1f	mun-	2b-\	-ca-
2A\	-ta	2A\	-ta	.	.	2cc\	-ta
=95	=95	=95	=95	=95	=95	=95	=95
!	!	!	!	!LO:N:xstem:cue:vis=4	!	!	!
1G	mun-	1B-X	mun-	2f\]	.	1b-	mun-
.	.	.	.	2e\	.	.	.
!	!	!LO:LB:g=original	!	!	!	!LO:LB:g=original	!
=96	=96	=96	=96	=96	=96	=96	=96
1F	-di	1c	-di,	1f	-di,	1a	-di,
=97	=97	=97	=97	=97	=97	=97	=97
2.E-X\	Su-	2.c\	su-	2.f\	sus-	2.a\	sus-
4E-\	-sci-	4c\	-sci-	4f\	-ci-	4a\	-ci-
!LO:LB:g=original	!	!	!	!	!	!	!
=98	=98	=98	=98	=98	=98	=98	=98
2D/	-pe	2d\	-pe	2f\	-pe	2b-\	-pe
4BB-X/	de-	4d\	de-	4f\	de-	4b-\	de-
4BB-/	-pre-	4d\	-pre-	4f\	-pre-	4b-\	-pre-
=99	=99	=99	=99	=99	=99	=99	=99
4E-X\	-ca-	4B-X\	-ca-	4e-X\	-ca-	4g/	-ca-
4E-\	-ti-	4B-\	-ti-	4e-\	-ti-	4g/	-ti-
4E-\	-o-	4c\	-o-	4e-\	-o-	4g/	-o-
4C/	-nem	4c\	-nem	4e-\	-nem	4g/	-nem
=100	=100	=100	=100	=100	=100	=100	=100
1D	no-	1A	no-	1d	no-	2g/	no-
.	.	.	.	.	.	2f#X/	.
=101	=101	=101	=101	=101	=101	=101	=101
2GG/	-stram.	2B-X\	-stram,	2d\	-stram	2g\	-stram,
2r	.	2r	.	2d\	qui	2r	.
=102	=102	=102	=102	=102	=102	=102	=102
!LO:TX:a:t=4.	!	!	!	!	!	!LO:TX:a:t=4.	!
00r	.	2r	.	[y1g	se-	00r	.
.	.	2G/	qui	.	.	.	.
=103	=103	=103	=103	=103	=103	=103	=103
!	!	!	!	!LO:N:xstem:cue:vis=4	!	!	!
.	.	[y1d	se-	2g\]	.	.	.
.	.	.	.	4f\	-des	.	.
.	.	.	.	4f\	ad	.	.
!	!	!	!	!LO:LB:g=original	!	!	!
=104	=104	=104	=104	=104	=104	=104	=104
!	!	!LO:N:xstem:cue:vis=4	!	!	!	!	!
.	.	2d\]	.	2e\	dex-	.	.
.	.	4c\	-des	4f#X\	-te-	.	.
.	.	4c\	ad	4f#\	-ram	.	.
=105	=105	=105	=105	=105	=105	=105	=105
.	.	2B-X\	dex-	[y1g	Pa-	.	.
.	.	4B-\	-te-	.	.	.	.
.	.	4B-\	-ram	.	.	.	.
!	!	!LO:LB:g=original	!	!	!	!	!
=106	=106	=106	=106	=106	=106	=106	=106
!	!	!	!	!LO:N:xstem:cue:vis=4	!	!	!
2D\	mi-	1A	Pa-	2g\]	.	2dd\	mi-
2D\	-se-	.	.	2f#X\	tris	2dd\	-se-
=107	=107	=107	=107	=107	=107	=107	=107
1G	-re-	1B-X	-tris	2g\	mi-	[1b-X	-re-
.	.	.	.	2g\	-se-	.	.
=108	=108	=108	=108	=108	=108	=108	=108
1C	-re	[y1e-X	mi-	1e-X	-re-	2b-\]	.
.	.	.	.	.	.	2b-\	-re
!	!	!	!	!	!	!LO:LB:g=original	!
=109	=109	=109	=109	=109	=109	=109	=109
!	!	!LO:N:xstem:cue:vis=4	!	!	!	!	!
2F\	mi-	2e-\]	.	1c	-re	1a	no-
2F\	-se-	2e-y\	-se-	.	.	.	.
!LO:LB:g=original	!	!	!	!	!	!	!
=110	=110	=110	=110	=110	=110	=110	=110
4BB-X/	-re-	2d\	-re-	4d\	no-	[y1b-X	.
4C/	.	.	.	4e-X\	.	.	.
4D/	.	2d\	-re	4f\	.	.	.
4E-X/	-re	.	.	4g\	.	.	.
=111	=111	=111	=111	=111	=111	=111	=111
!	!	!LO:SIC:v:s=1e-	!	!	!	!LO:N:xstem:cue:vis=4	!
1F	no-	1d	no-	1f	.	2b-\]	.
!	!	!	!	!	!	!LO:TX:a:t=P:problem:podwójna kreska taktowa	!
.	.	.	.	.	.	2a\	-bis.
=112	=112	=112	=112	=112	=112	=112	=112
2BB-/	-bis.	2d\	-bis	2f\	-bis,	2b-\	Quo-
2r	.	2r	.	2r	.	4b-\	-ni-
.	.	.	.	.	.	4b-\	-am
!	!	!	!	!LO:LB:g=original	!	!	!
=113	=113	=113	=113	=113	=113	=113	=113
!LO:TX:a:t=2	!	!LO:TX:a:t=1.	!	!	!	!	!
0r	.	1r	.	2f\	Quo-	4a\	quo-
.	.	.	.	.	.	4a\	-ni-
.	.	.	.	4f\	-ni-	4a\	-am
.	.	.	.	4f\	-am	4a\	tu
=114	=114	=114	=114	=114	=114	=114	=114
.	.	2B-X\	Quo-	4d\	quo-	2b-\	so-
.	.	.	.	4d\	-ni-	.	.
.	.	4B-\	-ni-	4d\	-am	2f/	-lus
.	.	4B-\	-am	4d\	tu	.	.
=115	=115	=115	=115	=115	=115	=115	=115
2F\	Quo-	4A\	quo-	2c\	so-	2f/	so-
.	.	4A\	-ni-	.	.	.	.
4F\	-ni-	4A\	-am	2c\	-lus,	2f/	-lus
4F\	-am	4c\	tu	.	.	.	.
=116	=116	=116	=116	=116	=116	=116	=116
4D/	quo-	2d\	so-	2r	.	1b-	San-
4C/	-ni-	.	.	.	.	.	.
4D/	-am	2d\	-lus	2f\	tu	.	.
4BB-/	tu	.	.	.	.	.	.
!	!	!LO:LB:g=original	!	!	!	!	!
=117	=117	=117	=117	=117	=117	=117	=117
2F\	so-	2c\	so-	2f\	so-	2a\	.
2BB-/	-lus	2d\	-lus	2f\	-lus	2b-\	.
!	!	!	!	!	!	!LO:LB:g=original	!
=118	=118	=118	=118	=118	=118	=118	=118
2F\	san-	2c\	san-	2f\	san-	1a	-ctus,
2F\	-ctus,	2c\	-ctus	2f\	-ctus	.	.
!LO:LB:g=original	!	!	!	!	!	!	!
=119	=119	=119	=119	=119	=119	=119	=119
!LO:TX:a:t=3.	!	!LO:TX:a:t=2.	!	!LO:TX:a:t=1.	!	!	!
0r	.	0r	.	1r	.	2cc\	quo-
.	.	.	.	.	.	4cc\	-ni-
.	.	.	.	.	.	4cc\	-am
=120	=120	=120	=120	=120	=120	=120	=120
.	.	.	.	2g\	quo-	4bn\	quo-
.	.	.	.	.	.	4b\	-ni-
.	.	.	.	4g\	-ni-	4b\	-am
.	.	.	.	4g\	-am	4b\	tu
!	!	!	!	!LO:LB:g=original	!	!	!
=121	=121	=121	=121	=121	=121	=121	=121
1r	.	2c\	quo-	4e-X\	quo-	2cc\	so-
.	.	.	.	4e-\	-ni-	.	.
!	!	!LO:TX:t=P:problem:korekta	!	!	!	!	!
.	.	4c\	-ni-	4e-\	-am	2g\	-lus
.	.	4c\	-am	4e-\	tu	.	.
=122	=122	=122	=122	=122	=122	=122	=122
2G\	quo-	4Bn\	quo-	2d\	so-	2g\	so-
.	.	4B\	-ni-	.	.	.	.
4G\	-ni-	4B\	-am	2d\	-lus	2g\	-lus
4G\	-am	4d\	tu	.	.	.	.
=123	=123	=123	=123	=123	=123	=123	=123
4E-X\	quo-	2e-X\	so-	2r	.	1cc	Do-
4D\	-ni-	.	.	.	.	.	.
4E-\	-am	2e-\	-lus	2g\	tu	.	.
4C/	tu	.	.	.	.	.	.
=124	=124	=124	=124	=124	=124	=124	=124
2G\	so-	2d\	so-	2g\	so-	2bn\	.
2C/	-lus	2e-X\	-lus	2g\	-lus	2cc\	-mi-
=125	=125	=125	=125	=125	=125	=125	=125
!	!	!	!	!	!	!LO:SIC:v:s=1bn	!
4G\	Do-	4d\	Do-	4g\	Do-	1b-	-nus,
4G\	-mi-	4d\	-mi-	4g\	-mi-	.	.
2G\	-nus	2d\	-nus,	2g\	-nus	.	.
=126	=126	=126	=126	=126	=126	=126	=126
!LO:TX:a:t=3.	!	!LO:TX:a:t=2	!	!LO:TX:a:t=1.	!	!	!
0r	.	0r	.	1r	.	2dd\	quo-
.	.	.	.	.	.	4dd\	-ni-
.	.	.	.	.	.	4dd\	-am
!	!	!	!	!	!	!LO:LB:g=original	!
=127	=127	=127	=127	=127	=127	=127	=127
.	.	.	.	2a\	quo-	4cc#X\	quo-
.	.	.	.	.	.	4cc#\	-ni-
.	.	.	.	4a\	-ni-	4cc#\	-am
.	.	.	.	4a\	-am	4cc#\	tu
!	!	!LO:LB:g=original	!	!	!	!	!
=128	=128	=128	=128	=128	=128	=128	=128
1r	.	2d\	quo-	4f\	quo-	2dd\	so-
.	.	.	.	4f\	-ni-	.	.
.	.	4d\	-ni-	4f\	-am	2a\	-lus
.	.	4d\	-am	4f\	tu	.	.
!	!	!	!	!LO:LB:g=original	!	!	!
=129	=129	=129	=129	=129	=129	=129	=129
2A\	quo-	4c#X\	quo-	2e\	so-	2a\	so-
.	.	4c#\	-ni-	.	.	.	.
4A\	-ni-	4c#\	-am	2e\	-lus,	4a\	-lus
4A\	-am	4en\	tu	.	.	4a\	al-
!LO:LB:g=original	!	!	!	!	!	!	!
=130	=130	=130	=130	=130	=130	=130	=130
4F\	quo-	2f\	so-	2r	.	1dd	-tis-
4E\	-ni-	.	.	.	.	.	.
4F\	-am	2f\	-lus	2a\	tu	.	.
4D\	tu	.	.	.	.	.	.
=131	=131	=131	=131	=131	=131	=131	=131
2A\	so-	2e\	so-	2a\	so-	2cc#X\	-si-
4D\	-lus	4f\	-lus	4a\	-lus	2dd\	-mus
4D\	al-	4f\	al-	4a\	al-	.	.
=132	=132	=132	=132	=132	=132	=132	=132
2A\	-tis-	2e\	-tis-	2a\	-tis-	1cc#X	Je-
4A\	-si-	4e\	-si-	4a\	-si-	.	.
4A\	-mus	4e\	-mus	4a\	-mus	.	.
=133	=133	=133	=133	=133	=133	=133	=133
1D	Je-	1f	Je-	2a\	Je-	1dd	-su
.	.	.	.	2a\	-su	.	.
=134	=134	=134	=134	=134	=134	=134	=134
1C	-su	1e	-su	[y1a	Chri-	1a	Chri-
=135	=135	=135	=135	=135	=135	=135	=135
!	!	!	!	!LO:N:xstem:cue:vis=4	!	!	!
1BB-X	Chri-	1d	Chri-	2a\]	.	1dd	.
.	.	.	.	2g\	.	.	.
=136	=136	=136	=136	=136	=136	=136	=136
!LO:TX:a:t=2	!	!LO:TX:a:t=2	!	!LO:TX:b:t=2.	!	!LO:TX:a:t=2	!
0AA	-ste.	0e	-ste.	0a	-ste.	0cc#X	-ste.
=137	=137	=137	=137	=137	=137	=137	=137
.	.	.	.	.	.	.	.
!	!	!LO:LB:g=original	!	!LO:LB:g=original	!	!LO:LB:g=original	!
=138||	=138||	=138||	=138||	=138||	=138||	=138||	=138||
*M3/2	*	*M3/2	*	*M3/2	*	*M3/2	*
!LO:TX:a:t=9.	!	!LO:TX:a:t=6	!	!LO:TX:a:t=3.	!	!	!
!LO:N:vis=00	!	!LO:N:vis=00	!	!LO:N:vis=0	!	!	!
00.r	.	00.r	.	0.r	.	2d/	Cum
.	.	.	.	.	.	2e/	san-
.	.	.	.	.	.	2f/	-cto
=139	=139	=139	=139	=139	=139	=139	=139
.	.	.	.	.	.	1g	spi-
.	.	.	.	.	.	2a\	-ri-
=140	=140	=140	=140	=140	=140	=140	=140
.	.	.	.	1.r	.	1d	-tu
.	.	.	.	.	.	2d/	in
=141	=141	=141	=141	=141	=141	=141	=141
.	.	.	.	2A/	Cum	[1.a	glo-
.	.	.	.	2Bn/	san-	.	.
.	.	.	.	2c#X/	-cto	.	.
=142	=142	=142	=142	=142	=142	=142	=142
!LO:N:vis=00	!	!LO:N:vis=0	!	!	!	!	!
00.r	.	0.r	.	1d	Spi-	2a\]	.
.	.	.	.	.	.	2g\	-ri-
.	.	.	.	2e\	-ri-	2g\	-a
=143	=143	=143	=143	=143	=143	=143	=143
.	.	.	.	1A	-tu	1g	De-
.	.	.	.	2A/	in	2g\	-i
=144	=144	=144	=144	=144	=144	=144	=144
.	.	2D/	Cum	1.d	glo-	1.f	Pa-
.	.	2E/	san-	.	.	.	.
.	.	2F/	-cto	.	.	.	.
=145	=145	=145	=145	=145	=145	=145	=145
.	.	1G	spi-	1d	.	1.e	.
.	.	2A\	-ri-	2c#X\	-ri-	.	.
=146	=146	=146	=146	=146	=146	=146	=146
1.r	.	1D	-tu,	1.d	-a	1.f	.
.	.	2D/	in	.	.	.	.
!	!	!	!	!	!	!LO:LB:g=original	!
=147	=147	=147	=147	=147	=147	=147	=147
2AA/	Cum	1.A	glo-	2c#X\	De-	1e	-tris,
2BBn/	san-	.	.	2d\	.	.	.
2C#X/	-cto	.	.	2e\	-i	2e/	in
!LO:LB:g=original	!	!	!	!LO:PB:g=original	!	!	!
=148	=148	=148	=148	=148	=148	=148	=148
1D	Spi-	1A	.	1.d	Pa-	2.f/	glo-
.	.	.	.	.	.	4f/	-ri-
2E\	-ri-	2G/	.	.	.	2g/	-a
=149	=149	=149	=149	=149	=149	=149	=149
1AA	-tu,	2G/	.	1.c#X	-tris	1e	De-
.	.	2G/	-ri-	.	.	.	.
2A\	in	2G/	-a	.	.	2e/	-i
=150	=150	=150	=150	=150	=150	=150	=150
2D\	glo-	2F/	De-	1.d	Pa-	2f/	Pa-
4D\	-ri-	2A\	.	.	.	2d/	.
4E\	-a	.	.	.	.	.	.
4F\	De-	2d\	-i	.	.	2a\	-tris
4D\	-i	.	.	.	.	.	.
!	!	!LO:LB:g=original	!	!	!	!	!
=151	=151	=151	=151	=151	=151	=151	=151
1A	Pa-	1c#X	Pa-	1e	-tris,	1a	a-
2AA/	-tris	2c#\	-tris	2a\	in	2a\	-men,
=152	=152	=152	=152	=152	=152	=152	=152
!LO:TX:a:t=1.	!	!	!	!	!	!LO:TX:a:t=2	!
!	!	!	!	!	!	!LO:N:vis=0	!
1.r	.	2r	.	2f\	glo-	0.r	.
.	.	2r	.	4d\	-ri-	.	.
.	.	.	.	4e\	-a	.	.
.	.	2d\	in	4f\	De-	.	.
.	.	.	.	4d\	-i	.	.
=153	=153	=153	=153	=153	=153	=153	=153
2r	.	2Bn\	glo-	1.g	Pa-	.	.
2r	.	4G/	.	.	.	.	.
.	.	4A/	.	.	.	.	.
2G\	in	4B/	-ri-	.	.	.	.
.	.	4G/	-a	.	.	.	.
=154	=154	=154	=154	=154	=154	=154	=154
2E\	glo-	1.c	De-	1.g	-tris	2r	.
4C\	-ri-	.	.	.	.	2r	.
4D\	-a	.	.	.	.	.	.
4E\	De-	.	.	.	.	2cc\	in
4C\	-i	.	.	.	.	.	.
=155	=155	=155	=155	=155	=155	=155	=155
1.F	Pa-	1.c	-i	1.f	Pa-	2a\	glo-
.	.	.	.	.	.	4f\	-ri-
.	.	.	.	.	.	4g\	-a
.	.	.	.	.	.	4a\	De-
.	.	.	.	.	.	4f\	-i
!LO:LB:g=original	!	!	!	!	!	!LO:LB:g=original	!
=156	=156	=156	=156	=156	=156	=156	=156
1.G	.	2B-\	Pa-	2f\	.	4b-\	Pa-
.	.	.	.	.	.	4a\	.
.	.	2c\	.	2e\	.	2g\	.
.	.	2d\	.	2d\	.	2f/	-tris
=157	=157	=157	=157	=157	=157	=157	=157
1A	.	1.A	tris	1c#X	.	1e	a-
2D\	-tris	.	.	2d\	-tris	2f/	.
!	!	!	!	!LO:LB:g=original	!	!	!
=158	=158	=158	=158	=158	=158	=158	=158
1.AA	a-	1.A	a-	1c#X	a-	1e	-men,
.	.	.	.	2c#\	-men,	2a\	in
=159	=159	=159	=159	=159	=159	=159	=159
1.AA	-men	1.A	-men	2r	.	2f/	glo-
.	.	.	.	2r	.	4d/	-ri-
.	.	.	.	.	.	4e/	-a
.	.	.	.	2d\	in	4f/	De-
.	.	.	.	.	.	4d/	-i
!	!	!LO:LB:g=original	!	!	!	!	!
=160	=160	=160	=160	=160	=160	=160	=160
1.AA	a-	2r	.	2c#X/	glo-	1.a	Pa-
.	.	2r	.	4A/	-ri-	.	.
.	.	.	.	4Bn/	-a	.	.
.	.	2A\	in	4c#X/	De-	.	.
.	.	.	.	4A/	-i	.	.
=161	=161	=161	=161	=161	=161	=161	=161
1.A	-men,	2F/	glo-	1d	Pa-	1a	.
.	.	4D/	-ri-	.	.	.	.
.	.	4E/	-a	.	.	.	.
.	.	4F/	De-	2d\	-tris	2f/	-tris
.	.	4D/	-i	.	.	.	.
=162	=162	=162	=162	=162	=162	=162	=162
1.AA	a-	1A	Pa-	1c#X	a-	1e	a-
.	.	2A\	-tris	[2d\	-men	2f/	-men
=163	=163	=163	=163	=163	=163	=163	=163
1.A	.	1.A	a-	2d\]	.	1.e	a-
.	.	.	.	2d\	a-	.	.
.	.	.	.	2c#X\	.	.	.
=164	=164	=164	=164	=164	=164	=164	=164
!	!	!LO:TX:a:t=2	!	!	!	!	!
!LO:N:vis=0	!	!LO:N:vis=0	!	!LO:N:vis=0	!	!LO:N:vis=0	!
0.D	-men.	0.A	-men.	0.d	-men.	0.f#X	-men.
=165	=165	=165	=165	=165	=165	=165	=165
.	.	.	.	.	.	.	.
==	==	==	==	==	==	==	==
*-	*-	*-	*-	*-	*-	*-	*-
!!!system-decoration: [(s1,s2,s3,s4)]
!!!RDF**kern: > = above
!!!AIN: 1 alto 1 bass 1 soprn 1 tenor
!!!ENC: Zofia Niedbalska
!!!END: 2021-01-24
!!!ENC: Krzysztof Stępień
!!!END: 2021-01-19
